images/svg/PS.svg

<svg width="90" height="89" viewBox="0 0 90 89" fill="none" xmlns="http://www.w3.org/2000/svg">
<path d="M3.71291 3.7793H85.3783V84.6339H3.71291V3.7793Z" fill="url(#paint0_radial_254_449)"/>
<path d="M3.71287 3.77927H85.3782V84.6338H3.71287V3.77927ZM0 88.4131H89.0733V0H0V88.4131ZM60.0664 36.2846C57.139 36.2846 56.1394 37.7927 56.1394 39.0464C56.1394 40.4091 56.7998 41.3539 60.7447 43.4253C66.564 46.296 68.3847 49.0578 68.3847 53.0915C68.3847 59.1419 63.8507 62.3943 57.728 62.3943C54.4971 62.3943 51.7125 61.722 50.1238 60.7772C49.856 60.6682 49.8203 60.4683 49.8203 60.1776V54.5995C49.8203 54.218 49.9988 54.109 50.2666 54.2906C52.605 55.8351 55.2825 56.5255 57.728 56.5255C60.6555 56.5255 61.8872 55.2718 61.8872 53.582C61.8872 52.2193 61.0304 51.0201 57.2818 49.0396C52.0159 46.4777 49.8203 43.8795 49.8203 39.5188C49.8203 34.6494 53.5689 30.5975 60.0664 30.5975C63.2617 30.5975 65.493 31.0881 66.7068 31.6514C67.0102 31.8331 67.0816 32.142 67.0816 32.4145V37.5928C67.0816 37.9017 66.9031 38.0834 66.5283 37.9744C64.886 36.9205 62.4762 36.2846 60.0664 36.2846ZM28.15 40.7725C29.0068 40.8452 29.6673 40.8452 31.1489 40.8452C35.4865 40.8452 39.5742 39.3008 39.5742 33.2866C39.5742 28.4899 36.6468 26.0733 31.7022 26.0733C30.2206 26.0733 28.8105 26.146 28.1322 26.1823L28.15 40.7725ZM21.5275 20.7133C21.5275 20.4408 22.0452 20.2591 22.3486 20.2591C24.7227 20.15 28.2571 20.0774 31.9164 20.0774C42.1982 20.0774 46.2146 25.8189 46.2146 33.1413C46.2146 42.7348 39.3779 46.8593 30.9882 46.8593C29.578 46.8593 29.0961 46.7866 28.0965 46.7866V61.2859C28.0965 61.5948 27.9894 61.7402 27.6502 61.7402H21.9738C21.6703 61.7402 21.5275 61.6311 21.5275 61.2859V20.7133Z" fill="#31C5F0"/>
<defs>
<radialGradient id="paint0_radial_254_449" cx="0" cy="0" r="1" gradientUnits="userSpaceOnUse" gradientTransform="translate(30.6173 21.9191) scale(62.0565 61.1565)">
<stop stop-color="#34364E" stop-opacity="0.98"/>
<stop offset="1" stop-color="#0C0824"/>
</radialGradient>
</defs>
</svg>

<svg xmlns="http://www.w3.org/2000/svg" width="90" height="89" fill="none"><path fill="url(#a)" d="M3.713 3.78h81.665v80.854H3.713V3.779Z"/><path fill="#31C5F0" d="M3.713 3.78h81.665v80.854H3.713V3.779ZM0 88.412h89.073V0H0v88.413Zm60.066-52.128c-2.927 0-3.927 1.508-3.927 2.761 0 1.363.66 2.308 4.606 4.38 5.819 2.87 7.64 5.632 7.64 9.666 0 6.05-4.534 9.302-10.657 9.302-3.23 0-6.016-.672-7.604-1.617-.268-.109-.304-.309-.304-.6V54.6c0-.381.179-.49.447-.308a13.66 13.66 0 0 0 7.461 2.235c2.928 0 4.16-1.254 4.16-2.944 0-1.363-.858-2.562-4.606-4.542-5.266-2.562-7.462-5.16-7.462-9.521 0-4.87 3.749-8.921 10.246-8.921 3.196 0 5.427.49 6.64 1.053.304.182.376.491.376.763v5.179c0 .309-.179.49-.554.381-1.642-1.053-4.052-1.69-6.462-1.69ZM28.15 40.773c.857.072 1.517.072 2.999.072 4.337 0 8.425-1.544 8.425-7.558 0-4.797-2.927-7.214-7.872-7.214a67.97 67.97 0 0 0-3.57.11l.018 14.59Zm-6.622-20.06c0-.272.517-.454.82-.454 2.375-.109 5.91-.182 9.568-.182 10.282 0 14.299 5.742 14.299 13.064 0 9.594-6.837 13.718-15.227 13.718-1.41 0-1.892-.072-2.892-.072v14.499c0 .309-.107.454-.446.454h-5.676c-.304 0-.447-.109-.447-.454V20.713Z"/><defs><radialGradient id="a" cx="0" cy="0" r="1" gradientTransform="matrix(62.0565 0 0 61.1565 30.617 21.92)" gradientUnits="userSpaceOnUse"><stop stop-color="#34364E" stop-opacity=".98"/><stop offset="1" stop-color="#0C0824"/></radialGradient></defs></svg>
